modules/dripicons/icons/headset.svg

<svg xmlns="http://www.w3.org/2000/svg" width="92" height="92" viewBox="0 0 92 92"><path d="M89 42.8l-.1 25.3c0 2.2-1.8 3.9-4 3.9s-4-1.7-4-3.9l.1-25.3c0-9.3-3.6-18-10.2-24.6C64.2 11.7 55.5 8 46.1 8H46C26.8 8 11.1 23.5 11 42.6V68c0 2.2-1.8 4-4 4s-4-1.8-4-4l.1-25.4C3.1 19.1 22.4 0 46 0h.1c11.5 0 22.3 4.5 30.3 12.6C84.6 20.7 89 31.4 89 42.8zm-52.4 2.1c.7.7 1 1.4 1 2.3l-.1 40.5c0 1.9-1.6 3.3-3.5 3.3-13.2 0-17.5-7.6-18-11.8v-23-.4c.5-4.1 4.9-11.8 18-11.8h.1c.9 0 1.8.2 2.5.9zm-6 6.2c-6.3 1-7.4 4.7-7.6 5.4l-.1 22.3c.2.8 1.3 4.4 7.6 5.4l.1-33.1zm45.5 5.1l.1 22.7v.3c-.5 4.1-4.8 11.8-18 11.8-1.9 0-3.5-1.3-3.5-3.3l-.1-40.3c0-.9.4-1.8 1-2.4.7-.7 1.5-1 2.5-1h.1c13.1 0 17.5 7.7 18 11.9-.1.1-.1.1-.1.3zm-6.9 22.6l-.1-22.3c-.2-.8-1.3-4.4-7.6-5.4l.1 33.1c6.4-1.1 7.4-4.7 7.6-5.4z"/></svg>

<?xml version="1.0" encoding="utf-8"?>
<!-- Generator: Adobe Illustrator 19.2.1, SVG Export Plug-In . SVG Version: 6.00 Build 0)  -->
<svg version="1.1" id="Layer_1" xmlns="http://www.w3.org/2000/svg" xmlns:xlink="http://www.w3.org/1999/xlink" x="0px" y="0px"
	 width="92px" height="92px" viewBox="0 0 92 92" enable-background="new 0 0 92 92" xml:space="preserve">
<path d="M89,42.8l-0.1,25.3c0,2.2-1.8,3.9-4,3.9c0,0,0,0,0,0c-2.2,0-4-1.7-4-3.9L81,42.8c0-9.3-3.6-18-10.2-24.6
	C64.2,11.7,55.5,8,46.1,8c0,0-0.1,0-0.1,0c-19.2,0-34.9,15.5-35,34.6L11,68c0,2.2-1.8,4-4,4c0,0,0,0,0,0c-2.2,0-4-1.8-4-4l0.1-25.4
	C3.1,19.1,22.4,0,46,0c0,0,0.1,0,0.1,0c11.5,0,22.3,4.5,30.3,12.6C84.6,20.7,89,31.4,89,42.8z M36.6,44.9c0.7,0.7,1,1.4,1,2.3
	l-0.1,40.5c0,1.9-1.6,3.3-3.5,3.3c0,0,0,0,0,0c-13.2,0-17.5-7.6-18-11.8c0-0.1,0,0,0-0.2L16,56.2c0-0.1,0-0.2,0-0.4
	C16.5,51.7,20.9,44,34,44c0,0,0.1,0,0.1,0C35,44,35.9,44.2,36.6,44.9z M30.6,51.1c-6.3,1-7.4,4.7-7.6,5.4l-0.1,22.3
	c0.2,0.8,1.3,4.4,7.6,5.4L30.6,51.1z M76.1,56.2l0.1,22.7c0,0.1,0,0.2,0,0.3c-0.5,4.1-4.8,11.8-18,11.8c0,0,0,0,0,0
	c-1.9,0-3.5-1.3-3.5-3.3l-0.1-40.3c0-0.9,0.4-1.8,1-2.4c0.7-0.7,1.5-1,2.5-1c0,0,0.1,0,0.1,0c13.1,0,17.5,7.7,18,11.9
	C76.1,56,76.1,56,76.1,56.2z M69.2,78.8l-0.1-22.3c-0.2-0.8-1.3-4.4-7.6-5.4l0.1,33.1C68,83.1,69,79.5,69.2,78.8z"/>
</svg>
